icons/ChevronRight_filled.svg

<svg width="24" height="24" viewBox="0 0 24 24" fill="none" xmlns="http://www.w3.org/2000/svg">
<path fill-rule="evenodd" clip-rule="evenodd" d="M14.8839,11.1161c0.4881,0.4882 0.4881,1.2796 0,1.7678l-4,4c-0.4882,0.4881 -1.27963,0.4881 -1.76778,0c-0.48816,-0.4882 -0.48816,-1.2796 0,-1.7678l3.11608,-3.1161l-3.11608,-3.11612c-0.48816,-0.48815 -0.48816,-1.27961 0,-1.76776c0.48815,-0.48816 1.27958,-0.48816 1.76778,0z" fill="#002B51"/>
</svg>

<svg width="24" height="24" viewBox="0 0 24 24" fill="none" xmlns="http://www.w3.org/2000/svg">
<path fill-rule="evenodd" clip-rule="evenodd" d="M14.8839 11.1161C15.372 11.6043 15.372 12.3957 14.8839 12.8839L10.8839 16.8839C10.3957 17.372 9.60427 17.372 9.11612 16.8839C8.62796 16.3957 8.62796 15.6043 9.11612 15.1161L12.2322 12L9.11612 8.88388C8.62796 8.39573 8.62796 7.60427 9.11612 7.11612C9.60427 6.62796 10.3957 6.62796 10.8839 7.11612L14.8839 11.1161Z" fill="#002B51"/>
</svg>
